X: 1
T: Ciao, Ciao, Bambina   [D]
C: Modugno-Verdi
M: C|
L: 1/4
K: D
HA HB Hc |:\
"Em"B2 B2 | zG FE | G2 G2 | "A7"zA Bc |\
"D"A2 A2 | zF ED | F4 | zF ED ||\
"D(Bm)"F2 F2 | zA GF |
"F#m"A2 A2 |\
[1 zA Bd | "B7"c2 B2 | "E7"z^G AB | "A"c4 | "A7"zA Bc :|\
[2 zA BA | "E7"B2 B2 | "A7"zc de | "D"d4 | z |]
